X:1
T:AIR FROM GUILLAUME TELL
T:AIR FROM GUILLAUME TELL
T:Rossini
C:Rossini
L:1/8
M:3/4
K:G
V:1 treble 
V:1
 (uDG A) | B3 (GBc) | d3 (eBe) | (dcA).F.A.e | (dBG).D.G.A | B3 (GBc) | d3 (eBe) | (dcA).D.F.A | %8
 G2 z2 uG2 | g4 (fe) | (ed) d z ue2 | (dc) c z ud2 | cB B z uG2 | g4 (fe) | (ed) d z ue2 | %15
 (d^c) c z uBA | d3 (AfA) | e3 (A^cA) | d3 (AfA) | e3 (A^cA) | .d(e^cede | =cdBdAd) | G2 z (uDGA) | %23
 B3 (GBc) | d3 (eBe) | (dcA)FAe | (dBG)DGA | B3 (GBc) | d3 (eBe) | (dcA)DFA | G3 (FGA) | B3 (FdF) | %32
 B3 (cBA) | G3 (DBD) | G3 (FGA) | B3 (FdF) | B3 (cBA) | G3 (DBD) | G3 z uG2 | g4 (fe) | %40
 (ed) d z ue2 | (dc) c z ud2 | [G,DBg]2 z2"^Fine." z2 |] %43

